X: 523
T: Perthshire Hunt
R: reel
B: "Preston's Twenty Four Country Dances for the Year 1804", Tho. Preston, ed. p.222
F: http://imslp.org/wiki/24_Country_Dances_for_the_Year_1804_(Preston_(publisher),_Thomas)
N: 2nd strain has an initial repeat but no final repeat.
N: "the middle" words are above and at the right of the text line, obviously a late addition.
M: C|
L: 1/8
K: A
F |\
TE2CE A,ECE | A,ECE FB,B,F | TE2CE A,ECA | ceBd cAA ::
e | (c/B/)A eA fAeA | (c/B/)A ec fB-Be | (c/B/)A eA fAeA | E>FGB cA-Ae |
(c/B/)A eA fAeA | (c/B/)A ec fB-Be | ceAc dfBc | TE>FAB cAA |]
% - - - - - - - - - - - - - - - - - - - - - - - - -
%% Cast off one Cu. up again, lead down the middle up again,
%% hands 4 round right & left at top.
%%endtext

%%sep 1 1 500
